icon-themes/breeze_svg/cmd/32/alignup.svg

<svg viewBox="0 0 32 32" xmlns="http://www.w3.org/2000/svg"><path d="m4 4v2h24v-2zm0 4v10h10v-10zm14 0v20h10v-20zm-13 1h8v8h-8zm14 0h8v18h-8z" fill="#4d4d4d"/></svg>

<svg xmlns="http://www.w3.org/2000/svg" viewBox="0 0 32 32">
 <path 
     style="fill:#4d4d4d" 
     d="M 4 4 L 4 6 L 28 6 L 28 4 L 4 4 z M 4 8 L 4 18 L 14 18 L 14 8 L 4 8 z M 18 8 L 18 28 L 28 28 L 28 8 L 18 8 z M 5 9 L 13 9 L 13 17 L 5 17 L 5 9 z M 19 9 L 27 9 L 27 27 L 19 27 L 19 9 z "
     />
</svg>
